_includes/svg/lapras.svg

<svg xmlns="http://www.w3.org/2000/svg" width="160" height="160" viewBox="0 0 500 500"><path fill="none" stroke="#000" d="M102.58 161H74.06v-45h5.99v40h22.53v5zm44.01 0h-6.39l-4.42-13h-19.5l-4.42 13h-6.08l16.42-45h7.99l16.4 45zm-12.65-18l-7.89-21.77-7.94 21.77h15.83zm50.61-13.52c0 1.98-.35 3.82-1.05 5.52-.7 1.69-1.67 3.15-2.92 4.39-1.56 1.53-3.39 2.68-5.52 3.45-2.11.78-4.79 1.16-8.01 1.16h-6v17h-5.99v-45h12.24c2.69 0 4.98.23 6.86.67 1.88.45 3.55 1.15 5 2.11 1.72 1.15 3.04 2.57 3.98 4.27.94 1.7 1.41 3.84 1.41 6.43zm-6.24.14c0-1.55-.27-2.89-.83-4.04-.54-1.16-1.36-2.1-2.46-2.83-.97-.63-2.08-1.07-3.33-1.34-1.24-.27-2.81-.41-4.71-.41h-5.93v18h5.06c2.41 0 4.38-.21 5.89-.64 1.52-.44 2.75-1.13 3.7-2.08.95-.97 1.62-1.98 2.02-3.05.39-1.07.59-2.27.59-3.61zM111.36 220h-7.78L88.5 202h-8.45v18h-5.99v-45h12.63c2.72 0 5 .18 6.81.53 1.81.35 3.45.97 4.91 1.88 1.63 1.02 2.91 2.31 3.82 3.87.92 1.56 1.38 3.52 1.38 5.91 0 3.23-.82 5.93-2.45 8.11-1.64 2.18-3.89 3.82-6.75 4.92L111.36 220zm-14.03-32.47c0-1.29-.23-2.44-.69-3.44-.45-1-1.2-1.83-2.25-2.51-.87-.58-1.9-.99-3.09-1.22-1.19-.24-2.59-.36-4.21-.36h-7.04v17h6.04c1.9 0 3.55-.16 4.97-.5 1.42-.33 2.62-.95 3.61-1.86.91-.84 1.57-1.81 2-2.91.44-1.1.66-2.5.66-4.2zM154.59 220h-6.39l-4.42-13h-19.5l-4.42 13h-6.08l16.42-45h7.99l16.4 45zm-12.65-18l-7.89-21.77-7.94 21.77h15.83zm53.87 5.23c0 1.78-.41 3.53-1.23 5.25-.81 1.72-1.96 3.18-3.42 4.38-1.62 1.3-3.5 2.32-5.66 3.05-2.15.72-4.73 1.09-7.77 1.09-3.24 0-6.15-.3-8.75-.91-2.59-.59-5.23-1.47-7.92-2.65V210h.42c2.29 1.92 4.92 3.4 7.91 4.44 2.99 1.04 5.79 1.56 8.41 1.56 3.72 0 6.61-.72 8.67-2.16 2.07-1.44 3.11-3.36 3.11-5.76 0-2.01-.49-3.49-1.47-4.44-.98-.96-2.47-1.7-4.47-2.23-1.51-.41-3.15-.74-4.92-1-1.76-.27-3.63-.61-5.61-1.02-4-.84-6.97-2.3-8.89-4.36-1.93-2.06-2.89-4.75-2.89-8.06 0-3.79 1.59-6.9 4.78-9.33 3.19-2.43 7.23-3.64 12.14-3.64 3.18 0 6.08.3 8.72.89 2.64.59 4.99 1.32 7.03 2.19V184h-.42c-1.72-1.44-3.98-2.63-6.78-3.58a26.8 26.8 0 0 0-8.58-1.42c-3.21 0-5.79.7-7.74 2.08-1.94 1.37-2.92 3.15-2.92 5.31 0 1.89.49 3.37 1.46 4.45.96 1.08 2.67 1.9 5.12 2.47 1.29.28 3.13.63 5.5 1.03 2.38.41 4.41.83 6.06 1.25 3.35.9 5.87 2.25 7.57 4.07 1.69 1.8 2.54 4.32 2.54 7.57z"/></svg>

<?xml version="1.0" encoding="UTF-8" standalone="no"?>
<!DOCTYPE svg PUBLIC "-//W3C//DTD SVG 20010904//EN"
              "http://www.w3.org/TR/2001/REC-SVG-20010904/DTD/svg10.dtd">

<svg xmlns="http://www.w3.org/2000/svg"
     width="1.66667in" height="1.66667in"
     viewBox="0 0 500 500">
  <path id="LAP ..."
        fill="none" stroke="black" stroke-width="1"
        d="M 102.58,161.00
           C 102.58,161.00 74.06,161.00 74.06,161.00
             74.06,161.00 74.06,116.00 74.06,116.00
             74.06,116.00 80.05,116.00 80.05,116.00
             80.05,116.00 80.05,156.00 80.05,156.00
             80.05,156.00 102.58,156.00 102.58,156.00
             102.58,156.00 102.58,161.00 102.58,161.00 Z
           M 146.59,161.00
           C 146.59,161.00 140.20,161.00 140.20,161.00
             140.20,161.00 135.78,148.00 135.78,148.00
             135.78,148.00 116.28,148.00 116.28,148.00
             116.28,148.00 111.86,161.00 111.86,161.00
             111.86,161.00 105.78,161.00 105.78,161.00
             105.78,161.00 122.20,116.00 122.20,116.00
             122.20,116.00 130.19,116.00 130.19,116.00
             130.19,116.00 146.59,161.00 146.59,161.00 Z
           M 133.94,143.00
           C 133.94,143.00 126.05,121.23 126.05,121.23
             126.05,121.23 118.11,143.00 118.11,143.00
             118.11,143.00 133.94,143.00 133.94,143.00 Z
           M 184.55,129.48
           C 184.55,131.46 184.20,133.30 183.50,135.00
             182.80,136.69 181.83,138.15 180.58,139.39
             179.02,140.92 177.19,142.07 175.06,142.84
             172.95,143.62 170.27,144.00 167.05,144.00
             167.05,144.00 161.05,144.00 161.05,144.00
             161.05,144.00 161.05,161.00 161.05,161.00
             161.05,161.00 155.06,161.00 155.06,161.00
             155.06,161.00 155.06,116.00 155.06,116.00
             155.06,116.00 167.30,116.00 167.30,116.00
             169.99,116.00 172.28,116.23 174.16,116.67
             176.04,117.12 177.71,117.82 179.16,118.78
             180.88,119.93 182.20,121.35 183.14,123.05
             184.08,124.75 184.55,126.89 184.55,129.48 Z
           M 178.31,129.62
           C 178.31,128.07 178.04,126.73 177.48,125.58
             176.94,124.42 176.12,123.48 175.02,122.75
             174.05,122.12 172.94,121.68 171.69,121.41
             170.45,121.14 168.88,121.00 166.98,121.00
             166.98,121.00 161.05,121.00 161.05,121.00
             161.05,121.00 161.05,139.00 161.05,139.00
             161.05,139.00 166.11,139.00 166.11,139.00
             168.52,139.00 170.49,138.79 172.00,138.36
             173.52,137.92 174.75,137.23 175.70,136.28
             176.65,135.31 177.32,134.30 177.72,133.23
             178.11,132.16 178.31,130.96 178.31,129.62 Z
           M 111.36,220.00
           C 111.36,220.00 103.58,220.00 103.58,220.00
             103.58,220.00 88.50,202.00 88.50,202.00
             88.50,202.00 80.05,202.00 80.05,202.00
             80.05,202.00 80.05,220.00 80.05,220.00
             80.05,220.00 74.06,220.00 74.06,220.00
             74.06,220.00 74.06,175.00 74.06,175.00
             74.06,175.00 86.69,175.00 86.69,175.00
             89.41,175.00 91.69,175.18 93.50,175.53
             95.31,175.88 96.95,176.50 98.41,177.41
             100.04,178.43 101.32,179.72 102.23,181.28
             103.15,182.84 103.61,184.80 103.61,187.19
             103.61,190.42 102.79,193.12 101.16,195.30
             99.52,197.48 97.27,199.12 94.41,200.22
             94.41,200.22 111.36,220.00 111.36,220.00 Z
           M 97.33,187.53
           C 97.33,186.24 97.10,185.09 96.64,184.09
             96.19,183.09 95.44,182.26 94.39,181.58
             93.52,181.00 92.49,180.59 91.30,180.36
             90.11,180.12 88.71,180.00 87.09,180.00
             87.09,180.00 80.05,180.00 80.05,180.00
             80.05,180.00 80.05,197.00 80.05,197.00
             80.05,197.00 86.09,197.00 86.09,197.00
             87.99,197.00 89.64,196.84 91.06,196.50
             92.48,196.17 93.68,195.55 94.67,194.64
             95.58,193.80 96.24,192.83 96.67,191.73
             97.11,190.63 97.33,189.23 97.33,187.53 Z
           M 154.59,220.00
           C 154.59,220.00 148.20,220.00 148.20,220.00
             148.20,220.00 143.78,207.00 143.78,207.00
             143.78,207.00 124.28,207.00 124.28,207.00
             124.28,207.00 119.86,220.00 119.86,220.00
             119.86,220.00 113.78,220.00 113.78,220.00
             113.78,220.00 130.20,175.00 130.20,175.00
             130.20,175.00 138.19,175.00 138.19,175.00
             138.19,175.00 154.59,220.00 154.59,220.00 Z
           M 141.94,202.00
           C 141.94,202.00 134.05,180.23 134.05,180.23
             134.05,180.23 126.11,202.00 126.11,202.00
             126.11,202.00 141.94,202.00 141.94,202.00 Z
           M 195.81,207.23
           C 195.81,209.01 195.40,210.76 194.58,212.48
             193.77,214.20 192.62,215.66 191.16,216.86
             189.54,218.16 187.66,219.18 185.50,219.91
             183.35,220.63 180.77,221.00 177.73,221.00
             174.49,221.00 171.58,220.70 168.98,220.09
             166.39,219.50 163.75,218.62 161.06,217.44
             161.06,217.44 161.06,210.00 161.06,210.00
             161.06,210.00 161.48,210.00 161.48,210.00
             163.77,211.92 166.40,213.40 169.39,214.44
             172.38,215.48 175.18,216.00 177.80,216.00
             181.52,216.00 184.41,215.28 186.47,213.84
             188.54,212.40 189.58,210.48 189.58,208.08
             189.58,206.07 189.09,204.59 188.11,203.64
             187.13,202.68 185.64,201.94 183.64,201.41
             182.13,201.00 180.49,200.67 178.72,200.41
             176.96,200.14 175.09,199.80 173.11,199.39
             169.11,198.55 166.14,197.09 164.22,195.03
             162.29,192.97 161.33,190.28 161.33,186.97
             161.33,183.18 162.92,180.07 166.11,177.64
             169.30,175.21 173.34,174.00 178.25,174.00
             181.43,174.00 184.33,174.30 186.97,174.89
             189.61,175.48 191.96,176.21 194.00,177.08
             194.00,177.08 194.00,184.00 194.00,184.00
             194.00,184.00 193.58,184.00 193.58,184.00
             191.86,182.56 189.60,181.37 186.80,180.42
             184.00,179.48 181.14,179.00 178.22,179.00
             175.01,179.00 172.43,179.70 170.48,181.08
             168.54,182.45 167.56,184.23 167.56,186.39
             167.56,188.28 168.05,189.76 169.02,190.84
             169.98,191.92 171.69,192.74 174.14,193.31
             175.43,193.59 177.27,193.94 179.64,194.34
             182.02,194.75 184.05,195.17 185.70,195.59
             189.05,196.49 191.57,197.84 193.27,199.66
             194.96,201.46 195.81,203.98 195.81,207.23 Z" />
</svg>
